icon_quote_right.svg

<svg width="37" height="48" viewBox="0 0 37 48" fill="none" xmlns="http://www.w3.org/2000/svg">
<path d="M8.25576 35.592L3.55176 32.52C4.70876 31.6713 5.82974 30.7745 6.91176 29.832C7.99976 28.872 8.92776 27.912 9.69576 26.952C10.4354 25.9775 11.0483 24.913 11.5198 23.784C12.0318 22.696 12.3518 21.576 12.4798 20.424L13.7278 20.904C13.2798 21.544 12.7358 21.992 12.0958 22.248C11.5198 22.504 10.8158 22.632 9.98376 22.632C8.38376 22.632 7.03976 22.184 5.95176 21.288C4.86376 20.328 4.31976 19.016 4.31976 17.352C4.31976 15.816 4.86376 14.568 5.95176 13.608C7.03976 12.584 8.41576 12.072 10.0798 12.072C11.8718 12.072 13.3118 12.616 14.3998 13.704C15.5518 14.792 16.1278 16.552 16.1278 18.984C16.1278 20.648 15.9038 22.28 15.4558 23.88C15.0718 25.48 14.4958 26.984 13.7278 28.392C13.0029 29.769 12.1682 31.0852 11.2318 32.328C10.3224 33.4886 9.32763 34.5796 8.25576 35.592ZM24.7678 35.592L20.0638 32.52C21.2208 31.6713 22.3417 30.7745 23.4238 29.832C24.5118 28.872 25.4398 27.912 26.2078 26.952C26.9474 25.9775 27.5603 24.913 28.0318 23.784C28.5438 22.696 28.8638 21.576 28.9918 20.424L30.2398 20.904C29.7918 21.544 29.2478 21.992 28.6078 22.248C28.0318 22.504 27.3278 22.632 26.4958 22.632C24.8958 22.632 23.5518 22.184 22.4638 21.288C21.3758 20.328 20.8318 19.016 20.8318 17.352C20.8318 15.816 21.3758 14.568 22.4638 13.608C23.5518 12.584 24.9278 12.072 26.5918 12.072C28.3838 12.072 29.8238 12.616 30.9118 13.704C32.0638 14.792 32.6398 16.552 32.6398 18.984C32.6398 20.648 32.4158 22.28 31.9678 23.88C31.5838 25.48 31.0078 26.984 30.2398 28.392C29.5149 29.769 28.6802 31.0852 27.7438 32.328C26.8344 33.4886 25.8396 34.5796 24.7678 35.592Z" fill="#56221E"/>
</svg>

<svg xmlns="http://www.w3.org/2000/svg" width="37" height="48" fill="none"><path fill="#041B2D" fill-opacity=".9" d="M8.256 35.592 3.552 32.52a51.443 51.443 0 0 0 3.36-2.688c1.088-.96 2.016-1.92 2.784-2.88a14.455 14.455 0 0 0 1.824-3.168c.512-1.088.832-2.208.96-3.36l1.248.48c-.448.64-.992 1.088-1.632 1.344-.576.256-1.28.384-2.112.384-1.6 0-2.944-.448-4.032-1.344-1.088-.96-1.632-2.272-1.632-3.936 0-1.536.544-2.784 1.632-3.744 1.088-1.024 2.464-1.536 4.128-1.536 1.792 0 3.232.544 4.32 1.632 1.152 1.088 1.728 2.848 1.728 5.28 0 1.664-.224 3.296-.672 4.896-.384 1.6-.96 3.104-1.728 4.512a28.95 28.95 0 0 1-2.496 3.936 29.614 29.614 0 0 1-2.976 3.264Zm16.512 0-4.704-3.072a51.443 51.443 0 0 0 3.36-2.688c1.088-.96 2.016-1.92 2.784-2.88a14.455 14.455 0 0 0 1.824-3.168c.512-1.088.832-2.208.96-3.36l1.248.48c-.448.64-.992 1.088-1.632 1.344-.576.256-1.28.384-2.112.384-1.6 0-2.944-.448-4.032-1.344-1.088-.96-1.632-2.272-1.632-3.936 0-1.536.544-2.784 1.632-3.744 1.088-1.024 2.464-1.536 4.128-1.536 1.792 0 3.232.544 4.32 1.632 1.152 1.088 1.728 2.848 1.728 5.28 0 1.664-.224 3.296-.672 4.896-.384 1.6-.96 3.104-1.728 4.512a28.95 28.95 0 0 1-2.496 3.936 29.614 29.614 0 0 1-2.976 3.264Z"/></svg>
